X:1
T:Title
%%score 1 { 2 | 3 } 4
L:1/8
Q:1/4=180
M:4/4
K:D
V:1 treble nm="E.Piano, Staff-2"
V:2 bass nm="E.Piano, Staff-3"
V:3 bass 
V:4 treble nm="Trumpet, Staff-4"
V:1
 D4 D4 | [EA]4 [FA]4 | [DB]8 | [DA]8 | [DB]4 [Gc]4 | [Fd]4 [Ad]4 | [Ae]8 | [Fd]8 | %8
w: By~J.~B.~K�nig *||||||||
 [Ac]4 [^Gd]2 F2 | [Ee]4 [CA]4 | [EB]4 D4 | [CA]8 | [DF]4 [DG]4 | [DA]4 D4 | [DE]4 C4 | D8 |] %16
w: ||||||||
V:2
 F,4 F,4 | A,4 A,4 | G,8 | F,8 | G,4 [E,G,]4 | A,4 [F,D]4 | [A,C]8 | D8 | E4 D4 | %9
 C2[K:bass] B,2 [F,A,]4 | [E,^G,]8 | A,8 | A,4 B,4 | A,4 F,4 | A,4 G,4 | F,8 |] %16
V:3
 D,4 B,,4 | C,4 D,4 | G,,8 | D,8 | z8 | D,4 z4 | z8 | D,8 | A,,4 B,,4 | C,4 z4 | z8 | z8 | %12
 D,4 B,,4 | F,,4 B,,4 | A,,8 | D,8 |] %16
V:4
 D4 D4 | [EA]4 [FA]4 | [DB]8 | [DA]8 | [DB]4 [Gc]4 | [Fd]4 [Ad]4 | [Ae]8 | [Fd]8 | %8
 [Ac]4 [^Gd]2 F2 | [Ee]4 [CA]4 | [EB]4 D4 | [CA]8 | [DF]4 [DG]4 | [DA]4 D4 | [DE]4 C4 | D8 |] %16

